src/img/Home/plus.svg

<svg width="14" height="14" viewBox="0 0 14 14" fill="none" xmlns="http://www.w3.org/2000/svg">
<path fill-rule="evenodd" clip-rule="evenodd" d="M7.5 0.5H6.5V6.5H0.5V7.5H6.5V13.5H7.5V7.5H13.5V6.5H7.5V0.5Z" fill="white"/>
</svg>

<svg xmlns="http://www.w3.org/2000/svg" width="14" height="14"><path fill-opacity=".8" fill-rule="evenodd" d="M7.5.5h-1v6h-6v1h6v6h1v-6h6v-1h-6v-6Z" clip-rule="evenodd"/></svg>
